packages/kaspersky-hexa-ui-icons/src/iconsSVGs/24/SettingsActiv.svg

<svg width="24" height="24" viewBox="0 0 24 24" fill="none" xmlns="http://www.w3.org/2000/svg">
<path d="M15.4319 2.9005L15.6115 4.6965C16.1142 4.92188 16.5893 5.19762 17.0306 5.51732L18.6772 4.77418C19.1455 4.56285 19.6977 4.74073 19.9546 5.18566L22.0496 8.81432C22.3065 9.25925 22.1845 9.82643 21.7673 10.1263L20.3004 11.1808C20.3278 11.4501 20.3418 11.7234 20.3418 12C20.3418 12.2766 20.3278 12.5499 20.3004 12.8193L21.7673 13.8737C22.1844 14.1736 22.3065 14.7408 22.0496 15.1857L19.9546 18.8143C19.6977 19.2593 19.1455 19.4372 18.6772 19.2258L17.0305 18.4827C16.5893 18.8024 16.1142 19.0781 15.6115 19.3035L15.4319 21.0995C15.3808 21.6107 14.9506 22 14.4369 22H10.2468C9.73309 22 9.30292 21.6107 9.2518 21.0995L9.0722 19.3035C8.56954 19.0781 8.09438 18.8024 7.65313 18.4827L6.0065 19.2258C5.53822 19.4371 4.986 19.2592 4.72912 18.8143L2.63411 15.1857C2.37724 14.7407 2.49929 14.1736 2.91645 13.8737L4.38328 12.8192C4.35588 12.5499 4.34185 12.2766 4.34185 12C4.34185 11.7234 4.35588 11.4501 4.38328 11.1808L2.9164 10.1263C2.49924 9.82645 2.37719 9.25926 2.63406 8.81434L4.72908 5.18568C4.98595 4.74075 5.53817 4.56287 6.00645 4.7742L7.65311 5.51733C8.09436 5.19763 8.56953 4.92188 9.0722 4.6965L9.2518 2.9005C9.30292 2.3893 9.73309 2 10.2468 2H14.4369C14.9506 2 15.3808 2.38929 15.4319 2.9005ZM14.3419 12C14.3419 10.8954 13.4464 10 12.3419 10C11.2373 10 10.3419 10.8954 10.3419 12C10.3419 13.1046 11.2373 14 12.3419 14C13.4464 14 14.3419 13.1046 14.3419 12Z" fill="black"/>
</svg>

<svg xmlns="http://www.w3.org/2000/svg" width="24" height="24" fill="none" viewBox="0 0 24 24"><path fill="#000" d="m15.4319 2.9005.1796 1.796a8 8 0 0 1 1.4191.8208l1.6466-.7431a1 1 0 0 1 1.2774.4115l2.095 3.6286a1 1 0 0 1-.2823 1.312l-1.4669 1.0545q.0413.4041.0414.8192-.0001.415-.0414.8193l1.4669 1.0544a1 1 0 0 1 .2823 1.312l-2.095 3.6286a1 1 0 0 1-1.2774.4115l-1.6467-.7431a8 8 0 0 1-1.419.8208l-.1796 1.796a1 1 0 0 1-.995.9005h-4.1901a1 1 0 0 1-.995-.9005l-.1796-1.796a8 8 0 0 1-1.419-.8208l-1.6467.7431a1 1 0 0 1-1.2774-.4115l-2.095-3.6286a1 1 0 0 1 .2824-1.312l1.4668-1.0545A8.1 8.1 0 0 1 4.3418 12q.0001-.415.0415-.8192l-1.4669-1.0545a1 1 0 0 1-.2823-1.312l2.095-3.6286a1 1 0 0 1 1.2774-.4115l1.6466.7431a8 8 0 0 1 1.4191-.8208l.1796-1.796A1 1 0 0 1 10.2468 2h4.1901a1 1 0 0 1 .995.9005M14.3419 12c0-1.1046-.8955-2-2-2s-2 .8954-2 2 .8954 2 2 2 2-.8954 2-2"/></svg>
